icons/laptop-blockB.svg

<svg width="24" height="24" viewBox="0 0 24 24" fill="none" xmlns="http://www.w3.org/2000/svg">
<path fill-rule="evenodd" clip-rule="evenodd" d="M6.5001 4.70007C5.31431 4.70007 4.3501 5.66429 4.3501 6.85007V16.3001H19.6501V6.85007C19.6501 5.66429 18.6859 4.70007 17.5001 4.70007H6.5001ZM2.8501 6.85007C2.8501 4.83586 4.48588 3.20007 6.5001 3.20007H17.5001C19.5143 3.20007 21.1501 4.83586 21.1501 6.85007V17.8001H2.8501V6.85007Z" fill="black"/>
<path d="M20.5 20.05H3.5C2.7 20.05 2 19.35 2 18.55C2 17.75 2.7 17.05 3.5 17.05H20.5C21.3 17.05 22 17.75 22 18.55C22 19.35 21.3 20.05 20.5 20.05Z" fill="black"/>
<path fill-rule="evenodd" clip-rule="evenodd" d="M3.5 17.8C3.11421 17.8 2.75 18.1643 2.75 18.55C2.75 18.9358 3.11421 19.3 3.5 19.3H20.5C20.8858 19.3 21.25 18.9358 21.25 18.55C21.25 18.1643 20.8858 17.8 20.5 17.8H3.5ZM1.25 18.55C1.25 17.3358 2.28579 16.3 3.5 16.3H20.5C21.7142 16.3 22.75 17.3358 22.75 18.55C22.75 19.7643 21.7142 20.8 20.5 20.8H3.5C2.28579 20.8 1.25 19.7643 1.25 18.55Z" fill="black"/>
<path fill-rule="evenodd" clip-rule="evenodd" d="M13.447 8.95685C12.6566 8.09452 11.2507 8.05987 10.3302 8.98038L10.3187 8.99191L10.3067 9.00292C9.44799 9.79007 9.41003 11.1874 10.3187 12.1081C11.2455 12.9461 12.678 12.9113 13.4696 12.1197L13.4811 12.1082L13.4931 12.0972C14.3554 11.3067 14.3901 9.90089 13.4696 8.98038L13.4581 8.96886L13.447 8.95685ZM14.5417 7.93121C13.1344 6.40973 10.7576 6.44392 9.28107 7.90828C7.75563 9.31925 7.79396 11.7048 9.26958 13.1804L9.2811 13.1919L9.29311 13.2029C10.7627 14.55 13.1124 14.5852 14.5187 13.1919C16.0402 11.7846 16.0061 9.40772 14.5417 7.93121Z" fill="black"/>
<path fill-rule="evenodd" clip-rule="evenodd" d="M9.26953 12.1197L13.5695 7.8197L14.6302 8.88036L10.3302 13.1804L9.26953 12.1197Z" fill="black"/>
</svg>

<svg xmlns="http://www.w3.org/2000/svg" fill="none" viewBox="0 0 24 24">
  <path fill="#000" fill-rule="evenodd" d="M6.5 4.7c-1.186 0-2.15.964-2.15 2.15v9.45h15.3V6.85c0-1.186-.964-2.15-2.15-2.15h-11ZM2.85 6.85A3.652 3.652 0 0 1 6.5 3.2h11a3.652 3.652 0 0 1 3.65 3.65V17.8H2.85V6.85Z" clip-rule="evenodd"/>
  <path fill="#000" d="M20.5 20.05h-17c-.8 0-1.5-.7-1.5-1.5s.7-1.5 1.5-1.5h17c.8 0 1.5.7 1.5 1.5s-.7 1.5-1.5 1.5Z"/>
  <path fill="#000" fill-rule="evenodd" d="M3.5 17.8c-.386 0-.75.364-.75.75s.364.75.75.75h17c.386 0 .75-.364.75-.75s-.364-.75-.75-.75h-17Zm-2.25.75c0-1.214 1.036-2.25 2.25-2.25h17c1.214 0 2.25 1.036 2.25 2.25s-1.036 2.25-2.25 2.25h-17c-1.214 0-2.25-1.036-2.25-2.25Zm12.197-9.593c-.79-.862-2.196-.897-3.117.023l-.011.012-.012.01c-.859.788-.897 2.185.012 3.106.926.838 2.359.803 3.15.012l.012-.012.012-.01c.862-.791.897-2.197-.023-3.118l-.012-.011-.011-.012Zm1.095-1.026c-1.408-1.521-3.784-1.487-5.26-.023-1.526 1.411-1.488 3.797-.012 5.272l.011.012.012.01c1.47 1.348 3.82 1.383 5.226-.01 1.521-1.407 1.487-3.784.023-5.26Z" clip-rule="evenodd"/>
  <path fill="#000" fill-rule="evenodd" d="m9.27 12.12 4.3-4.3 1.06 1.06-4.3 4.3-1.06-1.06Z" clip-rule="evenodd"/>
</svg>
